assets/BGB.svg

<?xml version="1.0" encoding="UTF-8" standalone="no"?>
<svg
   id="visual"
   viewBox="0 0 960 300"
   width="960"
   height="300"
   version="1.1"
   sodipodi:docname="BGB.svg"
   inkscape:version="1.3 (0e150ed6c4, 2023-07-21)"
   xmlns:inkscape="http://www.inkscape.org/namespaces/inkscape"
   xmlns:sodipodi="http://sodipodi.sourceforge.net/DTD/sodipodi-0.dtd"
   xmlns="http://www.w3.org/2000/svg"
   xmlns:svg="http://www.w3.org/2000/svg">
  <defs
     id="defs7" />
  <sodipodi:namedview
     id="namedview7"
     pagecolor="#ffffff"
     bordercolor="#000000"
     borderopacity="0.25"
     inkscape:showpageshadow="2"
     inkscape:pageopacity="0.0"
     inkscape:pagecheckerboard="true"
     inkscape:deskcolor="#d1d1d1"
     inkscape:zoom="0.63229167"
     inkscape:cx="413.57496"
     inkscape:cy="189.78583"
     inkscape:window-width="1366"
     inkscape:window-height="746"
     inkscape:window-x="-8"
     inkscape:window-y="-8"
     inkscape:window-maximized="1"
     inkscape:current-layer="visual" />
  <path
     d="m 0,154 22.8,-10.2 c 22.9,-10.1 68.5,-30.5 114.2,-36.1 45.7,-5.7 91.3,3.3 137,10.6 45.7,7.4 91.3,13 137.2,23.4 45.8,10.3 91.8,25.3 137.6,23.1 45.9,-2.1 91.5,-21.5 137.2,-27.1 45.7,-5.7 91.3,2.3 137,-0.4 45.7,-2.6 91.3,-16 114.2,-22.6 L 960,108 v 193 h -22.8 c -22.9,0 -68.5,0 -114.2,0 -45.7,0 -91.3,0 -137,0 -45.7,0 -91.3,0 -137.2,0 -45.8,0 -91.8,0 -137.6,0 -45.9,0 -91.5,0 -137.2,0 -45.7,0 -91.3,0 -137,0 -45.7,0 -91.3,0 -114.2,0 H 0 Z"
     fill="#ff9579"
     id="path1"
     style="display:inline" />
  <path
     d="M0 203L22.8 184.3C45.7 165.7 91.3 128.3 137 117C182.7 105.7 228.3 120.3 274 136.5C319.7 152.7 365.3 170.3 411.2 176.5C457 182.7 503 177.3 548.8 169.2C594.7 161 640.3 150 686 149.5C731.7 149 777.3 159 823 152C868.7 145 914.3 121 937.2 109L960 97L960 301L937.2 301C914.3 301 868.7 301 823 301C777.3 301 731.7 301 686 301C640.3 301 594.7 301 548.8 301C503 301 457 301 411.2 301C365.3 301 319.7 301 274 301C228.3 301 182.7 301 137 301C91.3 301 45.7 301 22.8 301L0 301Z"
     fill="#fb8d71"
     id="path2" />
  <path
     d="M0 161L22.8 168.2C45.7 175.3 91.3 189.7 137 195.7C182.7 201.7 228.3 199.3 274 197C319.7 194.7 365.3 192.3 411.2 184C457 175.7 503 161.3 548.8 154.5C594.7 147.7 640.3 148.3 686 160.3C731.7 172.3 777.3 195.7 823 201.3C868.7 207 914.3 195 937.2 189L960 183L960 301L937.2 301C914.3 301 868.7 301 823 301C777.3 301 731.7 301 686 301C640.3 301 594.7 301 548.8 301C503 301 457 301 411.2 301C365.3 301 319.7 301 274 301C228.3 301 182.7 301 137 301C91.3 301 45.7 301 22.8 301L0 301Z"
     fill="#f8866a"
     id="path3" />
  <path
     d="M0 163L22.8 166.5C45.7 170 91.3 177 137 176.5C182.7 176 228.3 168 274 174.3C319.7 180.7 365.3 201.3 411.2 208.7C457 216 503 210 548.8 199.7C594.7 189.3 640.3 174.7 686 181C731.7 187.3 777.3 214.7 823 218.7C868.7 222.7 914.3 203.3 937.2 193.7L960 184L960 301L937.2 301C914.3 301 868.7 301 823 301C777.3 301 731.7 301 686 301C640.3 301 594.7 301 548.8 301C503 301 457 301 411.2 301C365.3 301 319.7 301 274 301C228.3 301 182.7 301 137 301C91.3 301 45.7 301 22.8 301L0 301Z"
     fill="#f47e62"
     id="path4" />
  <path
     d="M0 250L22.8 248.5C45.7 247 91.3 244 137 238C182.7 232 228.3 223 274 221.2C319.7 219.3 365.3 224.7 411.2 225.2C457 225.7 503 221.3 548.8 219.8C594.7 218.3 640.3 219.7 686 227.3C731.7 235 777.3 249 823 255.2C868.7 261.3 914.3 259.7 937.2 258.8L960 258L960 301L937.2 301C914.3 301 868.7 301 823 301C777.3 301 731.7 301 686 301C640.3 301 594.7 301 548.8 301C503 301 457 301 411.2 301C365.3 301 319.7 301 274 301C228.3 301 182.7 301 137 301C91.3 301 45.7 301 22.8 301L0 301Z"
     fill="#f0765b"
     id="path5" />
  <path
     d="M0 225L22.8 234.2C45.7 243.3 91.3 261.7 137 260.3C182.7 259 228.3 238 274 234.5C319.7 231 365.3 245 411.2 244.5C457 244 503 229 548.8 229C594.7 229 640.3 244 686 243.3C731.7 242.7 777.3 226.3 823 222.3C868.7 218.3 914.3 226.7 937.2 230.8L960 235L960 301L937.2 301C914.3 301 868.7 301 823 301C777.3 301 731.7 301 686 301C640.3 301 594.7 301 548.8 301C503 301 457 301 411.2 301C365.3 301 319.7 301 274 301C228.3 301 182.7 301 137 301C91.3 301 45.7 301 22.8 301L0 301Z"
     fill="#ed6f53"
     id="path6" />
  <path
     d="M0 262L22.8 261.2C45.7 260.3 91.3 258.7 137 260C182.7 261.3 228.3 265.7 274 269.5C319.7 273.3 365.3 276.7 411.2 277.7C457 278.7 503 277.3 548.8 272.3C594.7 267.3 640.3 258.7 686 253C731.7 247.3 777.3 244.7 823 243C868.7 241.3 914.3 240.7 937.2 240.3L960 240L960 301L937.2 301C914.3 301 868.7 301 823 301C777.3 301 731.7 301 686 301C640.3 301 594.7 301 548.8 301C503 301 457 301 411.2 301C365.3 301 319.7 301 274 301C228.3 301 182.7 301 137 301C91.3 301 45.7 301 22.8 301L0 301Z"
     fill="#e9674c"
     id="path7" />
</svg>

<svg id="visual" viewBox="0 0 960 300" width="960" height="300" xmlns="http://www.w3.org/2000/svg" xmlns:xlink="http://www.w3.org/1999/xlink" version="1.1"><rect x="0" y="0" width="960" height="300" fill="#111"></rect><path d="M0 154L22.8 143.8C45.7 133.7 91.3 113.3 137 107.7C182.7 102 228.3 111 274 118.3C319.7 125.7 365.3 131.3 411.2 141.7C457 152 503 167 548.8 164.8C594.7 162.7 640.3 143.3 686 137.7C731.7 132 777.3 140 823 137.3C868.7 134.7 914.3 121.3 937.2 114.7L960 108L960 301L937.2 301C914.3 301 868.7 301 823 301C777.3 301 731.7 301 686 301C640.3 301 594.7 301 548.8 301C503 301 457 301 411.2 301C365.3 301 319.7 301 274 301C228.3 301 182.7 301 137 301C91.3 301 45.7 301 22.8 301L0 301Z" fill="#ff9579"></path><path d="M0 203L22.8 184.3C45.7 165.7 91.3 128.3 137 117C182.7 105.7 228.3 120.3 274 136.5C319.7 152.7 365.3 170.3 411.2 176.5C457 182.7 503 177.3 548.8 169.2C594.7 161 640.3 150 686 149.5C731.7 149 777.3 159 823 152C868.7 145 914.3 121 937.2 109L960 97L960 301L937.2 301C914.3 301 868.7 301 823 301C777.3 301 731.7 301 686 301C640.3 301 594.7 301 548.8 301C503 301 457 301 411.2 301C365.3 301 319.7 301 274 301C228.3 301 182.7 301 137 301C91.3 301 45.7 301 22.8 301L0 301Z" fill="#fb8d71"></path><path d="M0 161L22.8 168.2C45.7 175.3 91.3 189.7 137 195.7C182.7 201.7 228.3 199.3 274 197C319.7 194.7 365.3 192.3 411.2 184C457 175.7 503 161.3 548.8 154.5C594.7 147.7 640.3 148.3 686 160.3C731.7 172.3 777.3 195.7 823 201.3C868.7 207 914.3 195 937.2 189L960 183L960 301L937.2 301C914.3 301 868.7 301 823 301C777.3 301 731.7 301 686 301C640.3 301 594.7 301 548.8 301C503 301 457 301 411.2 301C365.3 301 319.7 301 274 301C228.3 301 182.7 301 137 301C91.3 301 45.7 301 22.8 301L0 301Z" fill="#f8866a"></path><path d="M0 163L22.8 166.5C45.7 170 91.3 177 137 176.5C182.7 176 228.3 168 274 174.3C319.7 180.7 365.3 201.3 411.2 208.7C457 216 503 210 548.8 199.7C594.7 189.3 640.3 174.7 686 181C731.7 187.3 777.3 214.7 823 218.7C868.7 222.7 914.3 203.3 937.2 193.7L960 184L960 301L937.2 301C914.3 301 868.7 301 823 301C777.3 301 731.7 301 686 301C640.3 301 594.7 301 548.8 301C503 301 457 301 411.2 301C365.3 301 319.7 301 274 301C228.3 301 182.7 301 137 301C91.3 301 45.7 301 22.8 301L0 301Z" fill="#f47e62"></path><path d="M0 250L22.8 248.5C45.7 247 91.3 244 137 238C182.7 232 228.3 223 274 221.2C319.7 219.3 365.3 224.7 411.2 225.2C457 225.7 503 221.3 548.8 219.8C594.7 218.3 640.3 219.7 686 227.3C731.7 235 777.3 249 823 255.2C868.7 261.3 914.3 259.7 937.2 258.8L960 258L960 301L937.2 301C914.3 301 868.7 301 823 301C777.3 301 731.7 301 686 301C640.3 301 594.7 301 548.8 301C503 301 457 301 411.2 301C365.3 301 319.7 301 274 301C228.3 301 182.7 301 137 301C91.3 301 45.7 301 22.8 301L0 301Z" fill="#f0765b"></path><path d="M0 225L22.8 234.2C45.7 243.3 91.3 261.7 137 260.3C182.7 259 228.3 238 274 234.5C319.7 231 365.3 245 411.2 244.5C457 244 503 229 548.8 229C594.7 229 640.3 244 686 243.3C731.7 242.7 777.3 226.3 823 222.3C868.7 218.3 914.3 226.7 937.2 230.8L960 235L960 301L937.2 301C914.3 301 868.7 301 823 301C777.3 301 731.7 301 686 301C640.3 301 594.7 301 548.8 301C503 301 457 301 411.2 301C365.3 301 319.7 301 274 301C228.3 301 182.7 301 137 301C91.3 301 45.7 301 22.8 301L0 301Z" fill="#ed6f53"></path><path d="M0 262L22.8 261.2C45.7 260.3 91.3 258.7 137 260C182.7 261.3 228.3 265.7 274 269.5C319.7 273.3 365.3 276.7 411.2 277.7C457 278.7 503 277.3 548.8 272.3C594.7 267.3 640.3 258.7 686 253C731.7 247.3 777.3 244.7 823 243C868.7 241.3 914.3 240.7 937.2 240.3L960 240L960 301L937.2 301C914.3 301 868.7 301 823 301C777.3 301 731.7 301 686 301C640.3 301 594.7 301 548.8 301C503 301 457 301 411.2 301C365.3 301 319.7 301 274 301C228.3 301 182.7 301 137 301C91.3 301 45.7 301 22.8 301L0 301Z" fill="#e9674c"></path></svg>
